Simply-Green-Circles/scalable/places/folder-github.svg

<?xml version="1.0" encoding="UTF-8" standalone="no"?>
<svg
   xmlns:dc="http://purl.org/dc/elements/1.1/"
   xmlns:cc="http://creativecommons.org/ns#"
   xmlns:rdf="http://www.w3.org/1999/02/22-rdf-syntax-ns#"
   xmlns:svg="http://www.w3.org/2000/svg"
   xmlns="http://www.w3.org/2000/svg"
   xmlns:sodipodi="http://sodipodi.sourceforge.net/DTD/sodipodi-0.dtd"
   xmlns:inkscape="http://www.inkscape.org/namespaces/inkscape"
   width="48"
   height="48"
   viewBox="0 0 12.7 12.7"
   version="1.1"
   id="svg8"
   sodipodi:docname="folder-github.svg"
   inkscape:version="0.92.4 (5da689c313, 2019-01-14)">
  <metadata
     id="metadata14">
    <rdf:RDF>
      <cc:Work
         rdf:about="">
        <dc:format>image/svg+xml</dc:format>
        <dc:type
           rdf:resource="http://purl.org/dc/dcmitype/StillImage" />
        <dc:title></dc:title>
      </cc:Work>
    </rdf:RDF>
  </metadata>
  <defs
     id="defs12" />
  <sodipodi:namedview
     pagecolor="#ffffff"
     bordercolor="#666666"
     borderopacity="1"
     objecttolerance="10"
     gridtolerance="10"
     guidetolerance="10"
     inkscape:pageopacity="0"
     inkscape:pageshadow="2"
     inkscape:window-width="1085"
     inkscape:window-height="480"
     id="namedview10"
     showgrid="false"
     inkscape:zoom="4.9166667"
     inkscape:cx="2.1355932"
     inkscape:cy="24"
     inkscape:window-x="0"
     inkscape:window-y="25"
     inkscape:window-maximized="0"
     inkscape:current-layer="svg8" />
  <g
     id="g6"
     style="fill:#2ca02c">
    <path
       d="m 6.344,0.07 a 6.29,6.29 0 0 0 -6.29,6.29 6.29,6.29 0 0 0 6.29,6.288 6.29,6.29 0 0 0 6.29,-6.289 A 6.29,6.29 0 0 0 6.343,0.07 Z M 6.326,1.006 A 5.407,5.407 0 0 1 11.733,6.413 5.407,5.407 0 0 1 6.326,11.82 5.407,5.407 0 0 1 0.92,6.413 5.407,5.407 0 0 1 6.327,1.006 Z"
       id="path2"
       inkscape:connector-curvature="0" />
    <path
       d="M 4.003,2.43 A 0.24,0.24 0 0 0 3.921,2.442 C 3.643,3.145 3.819,3.662 3.871,3.792 A 1.971,1.971 0 0 0 3.346,5.16 c 0,1.954 1.19,2.392 2.323,2.52 C 5.523,7.808 5.391,8.032 5.345,8.361 5.055,8.492 4.315,8.717 3.861,7.938 c 0,0 -0.27,-0.49 -0.781,-0.525 0,0 -0.498,-0.003 -0.035,0.31 0,0 0.335,0.156 0.567,0.745 0,0 0.298,0.992 1.717,0.684 0.002,0.425 0.007,0.746 0.007,0.867 0,0.117 -0.07,0.25 -0.253,0.254 H 8.125 C 7.934,10.275 7.864,10.139 7.864,10.019 7.864,9.852 7.87,9.302 7.87,8.621 7.87,8.145 7.707,7.834 7.524,7.676 8.66,7.55 9.852,7.12 9.852,5.16 9.852,4.603 9.654,4.148 9.328,3.792 9.38,3.662 9.555,3.145 9.278,2.442 c 0,0 -0.428,-0.137 -1.402,0.523 a 4.86,4.86 0 0 0 -2.553,0 C 4.593,2.47 4.169,2.424 4.003,2.431 Z"
       id="path4"
       inkscape:connector-curvature="0" />
  </g>
</svg>

<svg xmlns="http://www.w3.org/2000/svg" width="48" height="48" viewBox="0 0 12.7 12.7"><g fill="#2ca02c"><path d="M6.34.07A6.29 6.29 0 0 0 .05 6.36a6.29 6.29 0 0 0 6.3 6.29 6.29 6.29 0 0 0 6.28-6.3A6.29 6.29 0 0 0 6.34.08zm-.01.94a5.4 5.4 0 0 1 5.4 5.4 5.4 5.4 0 0 1-5.4 5.41 5.4 5.4 0 0 1-5.41-5.4A5.4 5.4 0 0 1 6.32 1z"/><path d="M4 2.43a.24.24 0 0 0-.08.01c-.28.7-.1 1.22-.05 1.35a1.97 1.97 0 0 0-.52 1.37c0 1.95 1.19 2.4 2.32 2.52-.15.13-.28.35-.32.68-.3.13-1.03.36-1.49-.42 0 0-.27-.5-.78-.53 0 0-.5 0-.03.31 0 0 .33.16.56.75 0 0 .3.99 1.72.68v.87c0 .12-.06.25-.25.25h3.04c-.19 0-.26-.13-.26-.25l.01-1.4c0-.48-.16-.79-.35-.94 1.14-.13 2.33-.56 2.33-2.52 0-.56-.2-1.01-.52-1.37.05-.13.22-.65-.05-1.35 0 0-.43-.14-1.4.52a4.86 4.86 0 0 0-2.56 0C4.6 2.47 4.17 2.42 4 2.43z"/></g></svg>
